www/assets/duotune/general/gen005.svg

<?xml version="1.0" encoding="UTF-8"?>
<svg id="Camada_1" xmlns="http://www.w3.org/2000/svg" version="1.1" viewBox="0 0 24 24">
  <!-- Generator: Adobe Illustrator 29.0.0, SVG Export Plug-In . SVG Version: 2.1.0 Build 186)  -->
  <defs>
    <style>
      .st0, .st1 {
        fill: #fff;
      }

      .st1 {
        isolation: isolate;
        opacity: .3;
      }
    </style>
  </defs>
  <path class="st1" d="M19,22H5c-.6,0-1-.4-1-1V3c0-.6.4-1,1-1h9l6,6v13c0,.6-.4,1-1,1ZM12.5,18c0-.6.1-.5-.5-.5h-3.5c-.6,0-.5-.1-.5.5s0,.5.5.5l3.5-.5c.6,0,.5.6.5,0ZM16.5,13c0-.6.1-.5-.5-.5h-7.5c-.6,0-.5-.1-.5.5s0,.5.5.5h7c.6,0,1,.1,1-.5ZM12.5,8c0-.6.1-.5-.5-.5h-4c-.6,0-.5,0-.5.5s0,.5.5.5h4c.6,0,.5.1.5-.5Z"/>
  <path class="st0" d="M8,17h4c.6,0,1,.4,1,1h0c0,.6-.4,1-1,1h-4c-.6,0-1-.4-1-1h0c0-.6.4-1,1-1Z"/>
  <path class="st0" d="M8,12h8c.6,0,1,.4,1,1h0c0,.6-.4,1-1,1h-8c-.6,0-1-.4-1-1h0c0-.6.4-1,1-1Z"/>
  <path class="st0" d="M8,7h4c.6,0,1,.4,1,1h0c0,.6-.4,1-1,1h-4c-.6,0-1-.4-1-1h0c0-.6.4-1,1-1Z"/>
  <path class="st0" d="M15,8h5L14,2v5c0,.6.4,1,1,1Z"/>
</svg>

<svg width="24" height="24" viewBox="0 0 24 24" fill="none" xmlns="http://www.w3.org/2000/svg">
<path opacity="0.3" d="M19 22H5C4.4 22 4 21.6 4 21V3C4 2.4 4.4 2 5 2H14L20 8V21C20 21.6 19.6 22 19 22ZM12.5 18C12.5 17.4 12.6 17.5 12 17.5H8.5C7.9 17.5 8 17.4 8 18C8 18.6 7.9 18.5 8.5 18.5L12 18C12.6 18 12.5 18.6 12.5 18ZM16.5 13C16.5 12.4 16.6 12.5 16 12.5H8.5C7.9 12.5 8 12.4 8 13C8 13.6 7.9 13.5 8.5 13.5H15.5C16.1 13.5 16.5 13.6 16.5 13ZM12.5 8C12.5 7.4 12.6 7.5 12 7.5H8C7.4 7.5 7.5 7.4 7.5 8C7.5 8.6 7.4 8.5 8 8.5H12C12.6 8.5 12.5 8.6 12.5 8Z" fill="currentColor"/>
<rect x="7" y="17" width="6" height="2" rx="1" fill="currentColor"/>
<rect x="7" y="12" width="10" height="2" rx="1" fill="currentColor"/>
<rect x="7" y="7" width="6" height="2" rx="1" fill="currentColor"/>
<path d="M15 8H20L14 2V7C14 7.6 14.4 8 15 8Z" fill="currentColor"/>
</svg>
